X: 27288
T: Miss Walsh
R: jig
M: 6/8
K: Gmajor
DGG BGG|dGG BAG|DGG BAG|ABG AGE|
DGG BGG|dGG BAG|gfg dBG|AGF G2:|
gfg ded|BAB def|g2 e dBG|AGE GED|
gfg ded|BAB def|g2 e dBG|AGF G2:|
DEG Bdd|cee Bdd|DEG BdB|AGE GED|
DEG Bdd|cee Bdd|gfg dBG|AGF G2:|

